X: 78
T:Dixden
% Nottingham Music Database
S:Pauline Wilson, via Phil Rowe
M:6/8
K:D
"D"d2A F2A|"G"G2B "A7"ABc|"D"d2A F2A|"Em"G2F "A7"E2A|
"D"d2A F2A|"G"G2B "A7"ABc |"D"d2A F2A|"A7"B2c "D"d3::
"D"f2d a2f|"Em"g2e "A7"c2A|"G"G2B "D"A2d|"A7"c2d ecA|
"D"f2d a2f|"E"efe "A7"cBA |"G"G2B "D"A2d|"A7"cBc d3:|


